P2
# deterministic 16 x 12 commissioning target
16 12
255
16 16 16 16 16 16 16 16 16 16 16 16 16 16 16 16
16 32 32 32 32 32 32 32 32 32 32 32 32 32 32 16
16 32 220 220 220 220 220 220 220 220 220 220 220 220 32 16
16 32 220 64 64 64 64 64 64 64 64 64 64 220 32 16
16 32 220 64 240 240 240 240 240 240 240 240 64 220 32 16
16 32 220 64 240 96 96 96 96 96 96 240 64 220 32 16
16 32 220 64 240 96 96 96 96 96 96 240 64 220 32 16
16 32 220 64 240 240 240 240 240 240 240 240 64 220 32 16
16 32 220 64 64 64 64 64 64 64 64 64 64 220 32 16
16 32 220 220 220 220 220 220 220 220 220 220 220 220 32 16
16 32 32 32 32 32 32 32 32 32 32 32 32 32 32 16
16 16 16 16 16 16 16 16 16 16 16 16 16 16 16 16
